X:6829
T:The Glass Of Stout
O:england
S:Phil Rowe via Toby Bennett
M:9/8
K:A
P:A
"A"c2c cde F"E7"dcB|"A"c2c cBA "E7"BAG|"A"ABc "D"dcd "E7"Bed|\
"A"c2A "E7"BAG "A"A3:|
P:B
"A"a2e c2e aga|"Bm"b2f d2f "E7"bag|"A"a2e c2e aga| [1"D"fed "A"c2d "E7"efg:|
[2"D"fed "A"c2d "E7"ecB||
